_inc/systems/logos/sgb.svg

<svg xmlns="http://www.w3.org/2000/svg" id="Layer_1" x="0" y="0" viewBox="0 0 3840 1355.9"><style id="style2" type="text/css">.st1{fill:#30308f}</style><path id="path6" d="M826.3 1024.9 802 899.3l-56.1 125.5h80.4m880.6 318.9h-132.8l-17.7-400.1-172.7 400.1h-88.6L1221.2 982l-115.1 361.7H880.2l-34-193.4H692.7l-87.1 193.4H466.9l284.9-646.6h163.9l87.1 522.6 169.8-522.6H1304l64.9 354.3 150.6-354.3h159.4z" class="st1" style="fill-opacity:1;fill:#fff"/><path id="polyline8" d="M2087.8 1343.7 2110 1205h-231.8l18.4-115.2h201.6l22.1-138.8h-203.7l17.7-115.1h231.8l22.1-138.8h-367.6l-103.3 646.6z" class="st1" style="fill-opacity:1;fill:#fff"/><path id="polyline10" d="M3813.6 697.1h-155l-131.4 211.1-82.7-211.1h-152l156.5 341-48.2 305.6h132.8l40.8-270.1z" class="st1" style="fill-opacity:1;fill:#fff"/><path id="path12" d="M3024.7 1220.6c70.3 31.5 156.3-30.2 192.1-137.8s8-220.3-62.3-251.7-156.3 30.3-192.1 137.8c-35.9 107.6-7.9 220.3 62.3 251.7m-201.1-255.8c41.2-178.7 194-296.1 341.3-262 147.2 34 233.1 206.5 191.9 385.2-41.3 178.8-194.1 296.1-341.3 262.1-147.2-34.1-233.1-206.5-191.9-385.3" class="st1" style="fill-opacity:1;fill:#fff"/><path id="path14" d="M183.4 754.7C56.9 833-4 952.5 12.2 1114.9 31 1303.3 275 1422 481.6 1302.4c18.1-10.5 11-8.8 17.7-14.8l41.3-262.7H294.2l-18.9 121h103l-11.8 65c-59 23.7-159.4 14.8-202.3-62-27.1-48.6-52.2-157.1 62-256.9 93-81.2 253.9-95.9 346.9-53.1 0 0 11.8-68 20.7-131.5-178.6-61.9-317.4-10.3-410.4 47.3" class="st1" style="fill-opacity:1;fill:#fff"/><path id="path16" d="m2390.4 700.8-102.6 641.7h298.9c123.1 0 303-181.4 139.2-329.7 168.5-174.3 1.5-310.6-87.9-312-71.8-1.2-249.1 0-249.1 0zm73.3 388.2H2575c105.5 0 102.6 128.9-14.6 128.9h-117.2zm41-252h86.4c93.8 0 74.7 120.2-14.7 120.2h-92.3z" class="st1" style="fill-opacity:1;fill:#fff"/><path id="path20" d="M1498.1 735.7c-2-21.4 18.9-37.4 32.2-53.9 70.9-88.3 143.5-174.7 218.6-259.1 5.1-5.8-1.6-14.4-8.5-10.9-77.5 40.2-154.6 83.6-235.3 118-41.8 16.9-86.8 46.9-128.3 14.4-.4-.3-.8-.7-1.2-1.1-30.3-32.4-21.8-55.1-6.6-84.9 3.2-6.2-3.6-12.7-9.7-9.3-98.1 56.5-199 109.3-304.9 151.2-16.3 6.5-33.4 8.5-49.9 4-11-3-20.3-10.3-26.8-19.7-14.9-21.9-32.4-45.1-16.5-71 51.4-90.9 138.2-155.9 215.7-223.7 32-26.7 65.4-51.9 97.8-78 6.1-4.9 9.1-3.8 13.1 2.3 10 14.9 20.4 29.5 30.7 44.2 2.2 3.1 1.5 7.4-1.6 9.6-71 51.9-138.4 108.9-205 166.3-28.5 26.4-57.8 53.5-83.2 82.7-10.1 27.4 21.1 11.4 33.6 7 180.1-67.6 343-174 494-291.9 8-3.9 17-21.9 25.2-10 8.8 13.1 18 26 27.1 38.9 4.4 6.2 3.5 14.7-2.1 19.9-65.3 61.2-128 128.4-177.7 202.9-8.2 22.6 39.4 2 43.1-.1 152.1-78.6 290.4-181.4 443.4-258 15.4-7.5 20.1-5.6 30.5 8.3 7.2 9.5 14 19.2 20.9 28.9a15.9 15.9 0 0 1-1.5 20.4c-36.6 38.2-72.5 77.2-107.8 116.6-5.3 6 1.9 14.8 8.8 10.6 111.9-68 231.6-123.5 360.8-149.7 29.6-6.9 57.7 16.2 66.5 41.6 17.3 50.4-28 82.9-62.1 115.3-109.3 100.7-289.9 243.1-435.6 132.9-3.4-2.9-6.7-5.6-11.4-1.6-37.2 32.1-74.8 63.7-111.5 96.4-42.3 38.6-80 82.1-118.5 124.6-13.5 18.8-55.3-24-56.3-34.1m697.2-372c6.4-6.8 13.1-13.3 19.3-20.3 4.5-5.1-.2-13.1-6.7-11.6-162 38.7-351.5 164-355.2 166.6-4.4 3-3.7 9.9 1.2 12.1C1973.7 565 2110.7 440 2195 364.1c.1-.1.2-.2.3-.4" class="st1" style="fill-opacity:1;fill:#fff"/><path id="path22" d="M3835.4 514.9c-3.5-8.3-7.2-15.4-17.7-18.2-77.9-20.1-126.2-31.1-237.4-32.7-151.9-2.1-303 8-453.5 27.9-25.2 3.3-44.5-22-34.5-45.4 7.2-16.8 14.5-33.5 21.8-50.8 7.5-14.9 8.2-29.8 6.9-45.1a66.3 66.3 0 0 0-13.6-34.6c-21.7-28.4-47.3-53.6-68.5-82.4-6-8.2-8.1-18.7-5.2-28.4 3.3-11.1 8.8-22.2 9.7-33.2 12.6-86.2-133.2-109.4-111.7-10.4 6.9 38.7 46.7 56.3 24.9 70.8-141.3 118.5-447 366.4-636.8 326.4-14.8-.9-18.4-14.4-16.6-27.2 2.3-15.7 40.7-69.2 51.3-65.1 96.2 28.7 195.8-20.8 276.6-70.2 38.6-24.4 74.5-52.4 109.4-81.8 10.3-8.6 10.4-20.7 9.7-32.5-3.3-55.7-52.8-77.6-103-68.1-109.8 11.8-448.7 213.3-400.2 354.4 7.1 20.6 24.3 36 45 42.7 212.1 69.2 547.5-222.4 695.7-348.2 7-9.9 17.7 16.6 23.2 21.3 10.6 18.6 49.1 50.6 43.7 70.2-15.6 55.3-53.4 103.2-66.7 159.4-3.1 22.6 15.5 49.4 29.5 57.4 6.9 4 20.8 4.8 31.8 3.2 57.3-8.2 114.5-16.7 171.9-24.2 108.6-12.4 221.9-20.7 327.8-18.5 46.2 1 170.2-1.2 170.2 24.2 0 18.5-3.6 23.2 18.1 21.5 29.2-1.9 58.4-5.3 87.7-5.3 24.2.2 12.5-52.2 10.5-57.1M2679.1 265.8c12.8-.4 18.4 16.1 7.9 23.5-69.2 48.3-188.1 152.1-296.9 129.8 49.6-55.6 207.3-149.4 289-153.3" class="st1" style="fill-opacity:1;fill:#fff"/><path id="path24" d="M523.9 330.8c-25-9.4-46.7-26.9-58.9-50.7-35.1-68.3 1.3-124.9 86.6-148.6 179.8-59.8 413.9-146.6 595.6-66 14.9 6.6 27.6 17.7 35.3 32 45.9 85.6-37 161-138.5 177.3-7.5 1.2-15.1-2.6-18.8-9.3-14.4-25.7-15-53.5-3.3-62.1 24.4-17.9 82.9-23.9 115.7-48.7 3.7-2.8 4.1-7.9 1.1-11.4-92.4-105.5-478.7 23.8-626 88-60.1 40.2 268.3 93.6 311.9 112 61.2 25.9 122.2 80.7 95.7 144.1-41.4 99.1-273.6 109.8-394.3 126.3-128.7 17.6-258.4 26.7-387.9 37.4C71.7 662-21.1 670.9 10 577.5c1.9-5.8 5.7-11 10.6-14.5 28.9-20.7 80.5-13 101.4 11.1 192.4-12.2 384.7-33.9 574.5-67.6 400.1-64.6-7.6-113.6-172.6-175.7" class="st1" style="fill-opacity:1;fill:#fff"/></svg>

<?xml version="1.0" encoding="utf-8"?>
<svg version="1.1" id="Layer_1" x="0px" y="0px" viewBox="0 0 3840 1355.9" style="enable-background:new 0 0 3840 1355.9;" xmlns="http://www.w3.org/2000/svg">
  <style type="text/css" id="style2">
	.st0{fill:#CBCBCA;}
	.st1{fill:#30308F;}
	.st2{fill:#EA2427;}
	.st3{fill:#EC2024;}
	.st4{fill:#FFFFFF;}
	.st5{stroke:#FFFFFF;stroke-width:6.1889;stroke-miterlimit:10;}
	.st6{fill:#FFFFFF;stroke:#231F20;stroke-width:6.1889;stroke-miterlimit:10;}
	.st7{fill:#FFFFFF;stroke:#000000;stroke-width:6.1889;stroke-miterlimit:10;}
	.st8{stroke:#DCE0DF;stroke-width:6.1889;stroke-miterlimit:10;}
</style>
  <path class="st1" d="M 826.3 1024.9 L 802 899.3 L 745.9 1024.8 L 826.3 1024.8 M 1706.9 1343.7 L 1574.1 1343.7 L 1556.4 943.6 L 1383.7 1343.7 L 1295.1 1343.7 L 1221.2 982 L 1106.1 1343.7 L 880.2 1343.7 L 846.2 1150.3 L 692.7 1150.3 L 605.6 1343.7 L 466.9 1343.7 L 751.8 697.1 L 915.7 697.1 L 1002.8 1219.7 L 1172.6 697.1 L 1304 697.1 L 1368.9 1051.4 L 1519.5 697.1 L 1678.9 697.1 L 1706.9 1343.7" id="path6" style="fill-opacity: 1; fill: rgb(255, 255, 255);"/>
  <path d="M 2087.8 1343.7 L 2110 1205 L 1878.2 1205 L 1896.6 1089.8 L 2098.2 1089.8 L 2120.3 951 L 1916.6 951 L 1934.3 835.9 L 2166.1 835.9 L 2188.2 697.1 L 1820.6 697.1 L 1717.3 1343.7 L 2087.8 1343.7" class="st1" id="polyline8" style="fill-opacity: 1; fill: rgb(255, 255, 255);"/>
  <path d="M 3813.6 697.1 L 3658.6 697.1 L 3527.2 908.2 L 3444.5 697.1 L 3292.5 697.1 L 3449 1038.1 L 3400.8 1343.7 L 3533.6 1343.7 L 3574.4 1073.6 L 3813.6 697.1" class="st1" id="polyline10" style="fill-opacity: 1; fill: rgb(255, 255, 255);"/>
  <path class="st1" d="M 3024.7 1220.6 C 3095 1252.1 3181 1190.4 3216.8 1082.8 C 3252.6 975.2 3224.8 862.5 3154.5 831.1 C 3084.2 799.7 2998.2 861.4 2962.4 968.9 C 2926.5 1076.5 2954.5 1189.2 3024.7 1220.6 M 2823.6 964.8 C 2864.8 786.1 3017.6 668.7 3164.9 702.8 C 3312.1 736.8 3398 909.3 3356.8 1088 C 3315.5 1266.8 3162.7 1384.1 3015.5 1350.1 C 2868.3 1316 2782.4 1143.6 2823.6 964.8" id="path12" style="fill-opacity: 1; fill: rgb(255, 255, 255);"/>
  <path class="st1" d="M 183.4 754.7 C 56.9 833 -4 952.5 12.2 1114.9 C 31 1303.3 275 1422 481.6 1302.4 C 499.7 1291.9 492.6 1293.6 499.3 1287.6 L 540.6 1024.9 L 294.2 1024.9 L 275.3 1145.9 L 378.3 1145.9 L 366.5 1210.9 C 307.5 1234.6 207.1 1225.7 164.2 1148.9 C 137.1 1100.3 112 991.8 226.2 892 C 319.2 810.8 480.1 796.1 573.1 838.9 C 573.1 838.9 584.9 770.9 593.8 707.4 C 415.2 645.5 276.4 697.1 183.4 754.7" id="path14" style="fill-opacity: 1; fill: rgb(255, 255, 255);"/>
  <path class="st1" d="M 2390.4 700.8 L 2287.8 1342.5 C 2287.8 1342.5 2500.2 1342.5 2586.7 1342.5 C 2709.8 1342.5 2889.7 1161.1 2725.9 1012.8 C 2894.4 838.5 2727.4 702.2 2638 700.8 C 2566.2 699.6 2388.9 700.8 2388.9 700.8 L 2390.4 700.8 M 2463.7 1089 C 2463.7 1089 2491.5 1089 2575 1089 C 2680.5 1089 2677.6 1217.9 2560.4 1217.9 C 2487.1 1217.9 2443.2 1217.9 2443.2 1217.9 L 2463.7 1089 M 2504.7 837 C 2504.7 837 2507.6 837 2591.1 837 C 2684.9 837 2665.8 957.2 2576.4 957.2 C 2503.1 957.2 2484.1 957.2 2484.1 957.2 L 2504.7 837" id="path16" style="fill-opacity: 1; fill: rgb(255, 255, 255);"/>
  <path class="st1" d="M 1498.1 735.7 C 1496.1 714.3 1517 698.3 1530.3 681.8 C 1601.2 593.5 1673.8 507.1 1748.9 422.7 C 1754 416.9 1747.3 408.3 1740.4 411.8 C 1662.9 452 1585.8 495.4 1505.1 529.8 C 1463.3 546.7 1418.3 576.7 1376.8 544.2 C 1376.4 543.9 1376 543.5 1375.6 543.1 C 1345.3 510.7 1353.8 488 1369 458.2 C 1372.2 452 1365.4 445.5 1359.3 448.9 C 1261.2 505.4 1160.3 558.2 1054.4 600.1 C 1038.1 606.6 1021 608.6 1004.5 604.1 C 993.5 601.1 984.2 593.8 977.7 584.4 C 962.8 562.5 945.3 539.3 961.2 513.4 C 1012.6 422.5 1099.4 357.5 1176.9 289.7 C 1208.9 263 1242.3 237.8 1274.7 211.7 C 1280.8 206.8 1283.8 207.9 1287.8 214 C 1297.8 228.9 1308.2 243.5 1318.5 258.2 C 1320.7 261.3 1320 265.6 1316.9 267.8 C 1245.9 319.7 1178.5 376.7 1111.9 434.1 C 1083.4 460.5 1054.1 487.6 1028.7 516.8 C 1018.6 544.2 1049.8 528.2 1062.3 523.8 C 1242.4 456.2 1405.3 349.8 1556.3 231.9 C 1564.3 228 1573.3 210 1581.5 221.9 C 1590.3 235 1599.5 247.9 1608.6 260.8 C 1613 267 1612.1 275.5 1606.5 280.7 C 1541.2 341.9 1478.5 409.1 1428.8 483.6 C 1420.6 506.2 1468.2 485.6 1471.9 483.5 C 1624 404.9 1762.3 302.1 1915.3 225.5 C 1930.7 218 1935.4 219.9 1945.8 233.8 C 1953 243.3 1959.8 253 1966.7 262.7 C 1971.2 269 1970.6 277.6 1965.2 283.1 C 1928.6 321.3 1892.7 360.3 1857.4 399.7 C 1852.1 405.7 1859.3 414.5 1866.2 410.3 C 1978.1 342.3 2097.8 286.8 2227 260.6 C 2256.6 253.7 2284.7 276.8 2293.5 302.2 C 2310.8 352.6 2265.5 385.1 2231.4 417.5 C 2122.1 518.2 1941.5 660.6 1795.8 550.4 C 1792.4 547.5 1789.1 544.8 1784.4 548.8 C 1747.2 580.9 1709.6 612.5 1672.9 645.2 C 1630.6 683.8 1592.9 727.3 1554.4 769.8 C 1540.9 788.6 1499.1 745.8 1498.1 735.7 L 1498.1 735.7 Z M 2195.3 363.7 C 2201.7 356.9 2208.4 350.4 2214.6 343.4 C 2219.1 338.3 2214.4 330.3 2207.9 331.8 C 2045.9 370.5 1856.4 495.8 1852.7 498.4 C 1848.3 501.4 1849 508.3 1853.9 510.5 C 1973.7 565 2110.7 440 2195 364.1 C 2195.1 364 2195.2 363.9 2195.3 363.7 L 2195.3 363.7 Z" id="path20" style="fill-opacity: 1; fill: rgb(255, 255, 255);"/>
  <path class="st1" d="M 3835.4 514.9 C 3831.9 506.6 3828.2 499.5 3817.7 496.7 C 3739.8 476.6 3691.5 465.6 3580.3 464 C 3428.4 461.9 3277.3 472 3126.8 491.9 C 3101.6 495.2 3082.3 469.9 3092.3 446.5 C 3099.5 429.7 3106.8 413 3114.1 395.7 C 3121.6 380.8 3122.3 365.9 3121 350.6 C 3119.9 338 3115.1 326 3107.4 316 C 3085.7 287.6 3060.1 262.4 3038.9 233.6 C 3032.9 225.4 3030.8 214.9 3033.7 205.2 C 3037 194.1 3042.5 183 3043.4 172 C 3056 85.8 2910.2 62.6 2931.7 161.6 C 2938.6 200.3 2978.4 217.9 2956.6 232.4 C 2815.3 350.9 2509.6 598.8 2319.8 558.8 C 2305 557.9 2301.4 544.4 2303.2 531.6 C 2305.5 515.9 2343.9 462.4 2354.5 466.5 C 2450.7 495.2 2550.3 445.7 2631.1 396.3 C 2669.7 371.9 2705.6 343.9 2740.5 314.5 C 2750.8 305.9 2750.9 293.8 2750.2 282 C 2746.9 226.3 2697.4 204.4 2647.2 213.9 C 2537.4 225.7 2198.5 427.2 2247 568.3 C 2254.1 588.9 2271.3 604.3 2292 611 C 2504.1 680.2 2839.5 388.6 2987.7 262.8 C 2994.7 252.9 3005.4 279.4 3010.9 284.1 C 3021.5 302.7 3060 334.7 3054.6 354.3 C 3039 409.6 3001.2 457.5 2987.9 513.7 C 2984.8 536.3 3003.4 563.1 3017.4 571.1 C 3024.3 575.1 3038.2 575.9 3049.2 574.3 C 3106.5 566.1 3163.7 557.6 3221.1 550.1 C 3329.7 537.7 3443 529.4 3548.9 531.6 C 3595.1 532.6 3719.1 530.4 3719.1 555.8 C 3719.1 574.3 3715.5 579 3737.2 577.3 C 3766.4 575.4 3795.6 572 3824.9 572 C 3849.1 572.2 3837.4 519.8 3835.4 514.9 L 3835.4 514.9 Z M 2679.1 265.8 C 2679.1 265.8 2679.1 265.8 2679.1 265.8 C 2691.9 265.4 2697.5 281.9 2687 289.3 C 2617.8 337.6 2498.9 441.4 2390.1 419.1 C 2439.7 363.5 2597.4 269.7 2679.1 265.8 Z" id="path22" style="fill-opacity: 1; fill: rgb(255, 255, 255);"/>
  <path class="st1" d="M 523.9 330.8 C 498.9 321.4 477.2 303.9 465 280.1 C 429.9 211.8 466.3 155.2 551.6 131.5 C 731.4 71.7 965.5 -15.1 1147.2 65.5 C 1162.1 72.1 1174.8 83.2 1182.5 97.5 C 1228.4 183.1 1145.5 258.5 1044 274.8 C 1036.5 276 1028.9 272.2 1025.2 265.5 C 1010.8 239.8 1010.2 212 1021.9 203.4 C 1046.3 185.5 1104.8 179.5 1137.6 154.7 C 1141.3 151.9 1141.7 146.8 1138.7 143.3 C 1046.3 37.8 660 167.1 512.7 231.3 C 452.6 271.5 781 324.9 824.6 343.3 C 885.8 369.2 946.8 424 920.3 487.4 C 878.9 586.5 646.7 597.2 526 613.7 C 397.3 631.3 267.6 640.4 138.1 651.1 C 71.7 662 -21.1 670.9 10 577.5 C 11.9 571.7 15.7 566.5 20.6 563 C 49.5 542.3 101.1 550 122 574.1 C 314.4 561.9 506.7 540.2 696.5 506.5 C 1096.6 441.9 688.9 392.9 523.9 330.8 Z" id="path24" style="fill-opacity: 1; fill: rgb(255, 255, 255);"/>
</svg>
